Yaru++/apps/scalable/maps-app.svg

<svg height="256" width="256" xmlns="http://www.w3.org/2000/svg" xmlns:xlink="http://www.w3.org/1999/xlink">
  <linearGradient id="linearGradient4317" gradientUnits="userSpaceOnUse" x1="360.74885" x2="360.74885" y1="105.60445" y2="408.07745">
    <stop offset="0" stop-opacity="0"/>
    <stop offset=".504"/>
    <stop offset="1" stop-opacity="0"/>
  </linearGradient>
  <filter id="filter4321" color-interpolation-filters="sRGB" height="1.147" width="1.276" x="-.14" y="-.07">
    <feGaussianBlur stdDeviation="9.324"/>
  </filter>
  <filter id="filter4398" color-interpolation-filters="sRGB" height="1.018" width="1.035" x="-.02" y="-.01">
    <feGaussianBlur stdDeviation="1.165"/>
  </filter>
  <linearGradient id="linearGradient4358" gradientTransform="matrix(0 -1 1 0 -10.0054 585.9946)" gradientUnits="userSpaceOnUse" x1="88" x2="488" y1="88" y2="488">
    <stop offset="0" stop-opacity=".588235"/>
    <stop offset=".88" stop-opacity="0"/>
    <stop offset="1"/>
  </linearGradient>
  <filter id="filter4380" color-interpolation-filters="sRGB" height="1.088" width="1.106" x="-.05" y="-.04">
    <feGaussianBlur stdDeviation="8.48"/>
  </filter>
  <filter id="filter4346" color-interpolation-filters="sRGB" height="1.022" width="1.026" x="-.01" y="-.01">
    <feGaussianBlur stdDeviation="2.12"/>
  </filter>
  <path d="m189.84323 74c-70.59344 0-78.18921 7.250835-77.84323 77.98706v146.01294 146.01294c-.34598 70.73623 7.24979 77.98706 77.84323 77.98706h196.31354c70.59344 0 76.00668-7.27384 77.84323-77.98706v-146.01294-146.01294c0-70.737067-7.24979-77.98706-77.84323-77.98706z" filter="url(#filter4346)" opacity=".1" transform="matrix(0 .5 -.5 0 276.82523 -15.328148)"/>
  <path d="m189.84323 74c-70.59344 0-78.18921 7.250835-77.84323 77.98706v146.01294 146.01294c-.34598 70.73623 7.24979 77.98706 77.84323 77.98706h196.31354c70.59344 0 77.84323-7.24999 77.84323-77.98706v-146.01294-146.01294c0-70.737067-7.24979-77.98706-77.84323-77.98706z" fill="url(#linearGradient4358)" filter="url(#filter4380)" opacity=".3" transform="matrix(0 .5 -.5 0 276.82523 -15.328148)"/>
  <path d="m241.83043 77.478254c0-36.098811-3.69016-39.983003-39.68984-39.806081h-74.31016-74.31015c-35.99969-.176922-39.68984 3.70727-39.68984 39.806081v100.387316c0 36.09881 3.68973 39.80608 39.68984 39.80608h74.31015 74.31016c36.00011 0 39.68984-3.70727 39.68984-39.80608z" opacity=".1"/>
  <path d="m54.818174 39.667201c-35.36853 0-38.992187 3.623202-38.992187 38.919923v98.158196c0 35.29673 3.624067 39.09487 38.992187 38.92188h73.007806 73.00586c35.36811.17299 38.99414-3.62515 38.99414-38.92188v-98.158196c0-35.296721-3.62561-38.919923-38.99414-38.919923h-73.00586z" fill="#6dc7f1"/>
  <path d="m134.5252 39.667201-36.8457 146.466789 28.05859 29.53321h2.08789 73.00586c35.36811.17299 38.99414-3.62515 38.99414-38.92188v-98.158196c0-35.296721-3.62561-38.919923-38.99414-38.919923z" fill="#e3dfd5"/>
  <path d="m54.818174 39.667201c-35.36853 0-38.992187 3.623202-38.992187 38.919923v22.900386l84.583983 87.07812 133.50194-142.318351c-5.25058-5.623135-15.0216-6.580078-33.08007-6.580078h-73.00586z" fill="#a6d74f"/>
  <path d="m15.825987 86.944544v29.033196l97.472643 99.68946h14.52735 13.85742z" fill="#f9f9f9" fill-opacity=".996078"/>
  <path d="m87.82794 39.667201v175.999999h39.99804 40.00195v-175.999999h-40.00195z" fill="#fff" opacity=".15"/>
  <path d="m15.825987 127.66915v49.07617c0 35.29673 3.624067 39.09487 38.992187 38.92188h73.007806 73.00586c35.36811.17299 38.99414-3.62515 38.99414-38.92188v-49.07617z" fill="#fff" opacity=".15"/>
  <path d="m227.49199 42.20431-174.378894 173.45703c.583324-.00051 1.103528.009 1.705078.006h26.999996l157.14453-156.312639c-1.29132-9.610692-4.39118-14.604432-11.47071-17.150391z" fill="#fdc92b"/>
  <path d="m344.62023 104c-44.76554 0-81.05518 36.28966-81.05518 81.05519 0 8.88851 1.49956 17.4171 4.14327 25.41957.26885.81383.48141 1.64776.77513 2.44993 2.06461 6.83163 32.32582 106.11802 76.22181 195.15231.0123 0 .0303-.007.0445-.0201.0175-.009.0336-.027.0496-.0448.0175-.0175.0338-.0345.0504-.0462.0175-.0123.0338-.0236.0473-.0236 46.90025-97.24086 76.71206-197.46607 76.71206-197.46607h-.0236c2.64047-7.99809 4.08981-16.53778 4.08981-25.42064.00021-44.76582-36.28945-81.05548-81.05497-81.05548z" filter="url(#filter4398)" opacity=".1" transform="matrix(.5 0 0 .5 -.17209 -.330826)"/>
  <path d="m344.62023 104c-44.76554 0-81.05518 36.28966-81.05518 81.05519 0 8.88851 1.49956 17.4171 4.14327 25.41957.26885.81383.48141 1.64776.77513 2.44993 2.06461 6.83163 32.32582 106.11802 76.22181 195.15231.0123 0 .0303-.007.0445-.0201.0175-.009.0336-.027.0496-.0448.0175-.0175.0338-.0345.0504-.0462.0175-.0123.0338-.0236.0473-.0236 46.90025-97.24086 76.71206-197.46607 76.71206-197.46607h-.0236c2.64047-7.99809 4.08981-16.53778 4.08981-25.42064.00021-44.76582-36.28945-81.05548-81.05497-81.05548z" fill="url(#linearGradient4317)" filter="url(#filter4321)" opacity=".4" transform="matrix(.5 0 0 .5 -.17209 -.330826)"/>
  <path d="m172.138 50.669174c-22.3828 0-40.5276 18.14483-40.5276 40.52759 0 4.44426.7498 8.70855 2.0716 12.709786.1344.40691.2407.82388.3876 1.22496 1.0323 3.41582 16.1629 53.05901 38.1109 97.57616.01 0 .015-.004.022-.0101.01-.004.017-.0135.025-.0224.01-.009.017-.0172.025-.0231.01-.006.017-.0118.024-.0118 23.4501-48.62043 38.356-98.73304 38.356-98.73304h-.012c1.3203-3.999036 2.0449-8.268886 2.0449-12.710316.0001-22.382905-18.1447-40.527735-40.5275-40.527735z" fill="#f22c42"/>
  <circle cx="171.828" cy="91.669" fill="#bc1938" r="20"/>
  <path d="m172.1384 50.669174c-22.3828 0-40.5273 18.144584-40.5273 40.52734 0 .37362.011.74421.021 1.11524.4722-21.972822 18.4197-39.64258 40.5058-39.64258s40.0337 17.669619 40.5059 39.64258c.01-.3709.022-.74185.022-1.11524.0001-22.382901-18.1446-40.52734-40.5274-40.52734z" fill="#fff" opacity=".4"/>
  <path d="m54.818174 39.667201c-35.36853 0-38.992187 3.623202-38.992187 38.919923v98.158196c0 .0882.0019.16224.002.25v-96.410146c-.000047-35.29672 3.625564-38.921879 38.994094-38.921879h73.005849 73.00586c35.28016 0 38.97394 3.621035 38.99219 38.671879v-1.74805c0-35.296721-3.62561-38.919923-38.99414-38.919923h-73.00586z" fill="#fff" opacity=".3"/>
  <path d="m15.825987 174.74532v2c0 35.29673 3.624067 39.09487 38.992187 38.92188h73.007806 73.00586c35.36811.17299 38.99414-3.62515 38.99414-38.92188v-2c0 35.29673-3.62603 39.09487-38.99414 38.92188h-73.00586-73.007806c-35.36812.17299-38.992187-3.62515-38.992187-38.92188z" opacity=".2"/>
</svg>

<svg xmlns="http://www.w3.org/2000/svg" xmlns:osb="http://www.openswatchbook.org/uri/2009/osb" xmlns:xlink="http://www.w3.org/1999/xlink" width="256" height="256" version="1.1">
 <defs>
  <linearGradient id="linearGradient5606" osb:paint="solid">
   <stop id="stop5608" offset="0" style="stop-color:#000000"/>
  </linearGradient>
  <linearGradient id="linearGradient4526" osb:paint="solid">
   <stop id="stop4528" offset="0" style="stop-color:#ffffff"/>
  </linearGradient>
  <linearGradient id="linearGradient3600-4" osb:paint="gradient">
   <stop id="stop3602-7" offset="0" style="stop-color:#f4f4f4"/>
   <stop id="stop3604-6" offset="1" style="stop-color:#dbdbdb"/>
  </linearGradient>
  <linearGradient id="linearGradient4317" x1="667.975" x2="667.975" y1="-19.788" y2="282.685" gradientTransform="translate(-307.22615,125.39245)" gradientUnits="userSpaceOnUse" xlink:href="#linearGradient4311"/>
  <linearGradient id="linearGradient4311">
   <stop style="stop-color:#000000;stop-opacity:0" id="stop4313" offset="0"/>
   <stop id="stop4319" offset=".504" style="stop-color:#000000"/>
   <stop style="stop-color:#000000;stop-opacity:0" id="stop4315" offset="1"/>
  </linearGradient>
  <filter style="color-interpolation-filters:sRGB" id="filter4321" width="1.276" height="1.147" x="-.14" y="-.07">
   <feGaussianBlur id="feGaussianBlur4323" stdDeviation="9.324"/>
  </filter>
  <filter style="color-interpolation-filters:sRGB" id="filter4398" width="1.035" height="1.018" x="-.02" y="-.01">
   <feGaussianBlur id="feGaussianBlur4400" stdDeviation="1.165"/>
  </filter>
  <linearGradient id="linearGradient4358" x1="88" x2="488" y1="88" y2="488" gradientTransform="rotate(-90,287.9946,298)" gradientUnits="userSpaceOnUse" xlink:href="#linearGradient4360"/>
  <linearGradient id="linearGradient4360">
   <stop id="stop4362" offset="0" style="stop-color:#000000;stop-opacity:0.58823532"/>
   <stop style="stop-color:#000000;stop-opacity:0" id="stop4364" offset=".88"/>
   <stop id="stop4366" offset="1" style="stop-color:#000000"/>
  </linearGradient>
  <filter style="color-interpolation-filters:sRGB" id="filter4380" width="1.106" height="1.088" x="-.05" y="-.04">
   <feGaussianBlur id="feGaussianBlur4382" stdDeviation="8.48"/>
  </filter>
  <filter style="color-interpolation-filters:sRGB" id="filter4346" width="1.026" height="1.022" x="-.01" y="-.01">
   <feGaussianBlur id="feGaussianBlur4348" stdDeviation="2.12"/>
  </filter>
 </defs>
 <path style="opacity:0.1;filter:url(#filter4346)" d="M 189.84323,74 C 119.24979,74 111.65402,81.250835 112,151.98706 V 298 444.01294 C 111.65402,514.74917 119.24979,522 189.84323,522 H 386.15677 C 456.75021,522 462.16345,514.72616 464,444.01294 V 298 151.98706 C 464,81.249993 456.75021,74 386.15677,74 Z" transform="matrix(0,0.5,-0.5,0,276.82523,-15.328148)"/>
 <path d="M 189.84323,74 C 119.24979,74 111.65402,81.250835 112,151.98706 V 298 444.01294 C 111.65402,514.74917 119.24979,522 189.84323,522 H 386.15677 C 456.75021,522 464,514.75001 464,444.01294 V 298 151.98706 C 464,81.249993 456.75021,74 386.15677,74 Z" transform="matrix(0,0.5,-0.5,0,276.82523,-15.328148)" style="opacity:0.3;fill:url(#linearGradient4358);filter:url(#filter4380)"/>
 <path style="opacity:0.1" d="m 241.83043,77.478254 c 0,-36.098811 -3.69016,-39.983003 -39.68984,-39.806081 H 127.83043 53.52028 C 17.52059,37.495251 13.83044,41.379443 13.83044,77.478254 V 177.86557 c 0,36.09881 3.68973,39.80608 39.68984,39.80608 h 74.31015 74.31016 c 36.00011,0 39.68984,-3.70727 39.68984,-39.80608 z"/>
 <path style="fill:#6dc7f1" d="m 54.818174,39.667201 c -35.36853,0 -38.992187,3.623202 -38.992187,38.919923 v 98.158196 c 0,35.29673 3.624067,39.09487 38.992187,38.92188 h 73.007806 73.00586 c 35.36811,0.17299 38.99414,-3.62515 38.99414,-38.92188 V 78.587124 c 0,-35.296721 -3.62561,-38.919923 -38.99414,-38.919923 h -73.00586 z"/>
 <path style="fill:#e3dfd5" d="M 134.5252,39.667201 97.6795,186.13399 125.73809,215.6672 h 2.08789 73.00586 c 35.36811,0.17299 38.99414,-3.62515 38.99414,-38.92188 V 78.587124 c 0,-35.296721 -3.62561,-38.919923 -38.99414,-38.919923 z"/>
 <path style="fill:#a6d74f" d="m 54.818174,39.667201 c -35.36853,0 -38.992187,3.623202 -38.992187,38.919923 V 101.48751 L 100.40997,188.56563 233.91191,46.247279 c -5.25058,-5.623135 -15.0216,-6.580078 -33.08007,-6.580078 h -73.00586 z"/>
 <path style="fill:#f9f9f9;fill-opacity:0.99607843" d="m 15.825987,86.944544 v 29.033196 l 97.472643,99.68946 h 14.52735 13.85742 z"/>
 <path style="opacity:0.15;fill:#ffffff" d="M 87.82794,39.667201 V 215.6672 h 39.99804 40.00195 V 39.667201 h -40.00195 z"/>
 <path style="opacity:0.15;fill:#ffffff" d="m 15.825987,127.66915 v 49.07617 c 0,35.29673 3.624067,39.09487 38.992187,38.92188 h 73.007806 73.00586 c 35.36811,0.17299 38.99414,-3.62515 38.99414,-38.92188 v -49.07617 z"/>
 <path style="fill:#fdc92b" d="M 227.49199,42.20431 53.113096,215.66134 c 0.583324,-5.1e-4 1.103528,0.009 1.705078,0.006 H 81.81817 L 238.9627,59.354701 C 237.67138,49.744009 234.57152,44.750269 227.49199,42.20431 Z"/>
 <path style="opacity:0.1;filter:url(#filter4398)" d="m 344.62023,104 c -44.76554,0 -81.05518,36.28966 -81.05518,81.05519 0,8.88851 1.49956,17.4171 4.14327,25.41957 0.26885,0.81383 0.48141,1.64776 0.77513,2.44993 2.06461,6.83163 32.32582,106.11802 76.22181,195.15231 0.0123,0 0.0303,-0.007 0.0445,-0.0201 0.0175,-0.009 0.0336,-0.027 0.0496,-0.0448 0.0175,-0.0175 0.0338,-0.0345 0.0504,-0.0462 0.0175,-0.0123 0.0338,-0.0236 0.0473,-0.0236 46.90025,-97.24086 76.71206,-197.46607 76.71206,-197.46607 h -0.0236 c 2.64047,-7.99809 4.08981,-16.53778 4.08981,-25.42064 2.1e-4,-44.76582 -36.28945,-81.05548 -81.05497,-81.05548 z" transform="matrix(0.5,0,0,0.5,-0.17209011,-0.33082552)"/>
 <path style="opacity:0.4;fill:url(#linearGradient4317);filter:url(#filter4321)" d="m 344.62023,104 c -44.76554,0 -81.05518,36.28966 -81.05518,81.05519 0,8.88851 1.49956,17.4171 4.14327,25.41957 0.26885,0.81383 0.48141,1.64776 0.77513,2.44993 2.06461,6.83163 32.32582,106.11802 76.22181,195.15231 0.0123,0 0.0303,-0.007 0.0445,-0.0201 0.0175,-0.009 0.0336,-0.027 0.0496,-0.0448 0.0175,-0.0175 0.0338,-0.0345 0.0504,-0.0462 0.0175,-0.0123 0.0338,-0.0236 0.0473,-0.0236 46.90025,-97.24086 76.71206,-197.46607 76.71206,-197.46607 h -0.0236 c 2.64047,-7.99809 4.08981,-16.53778 4.08981,-25.42064 2.1e-4,-44.76582 -36.28945,-81.05548 -81.05497,-81.05548 z" transform="matrix(0.5,0,0,0.5,-0.17209011,-0.33082552)"/>
 <path d="m 172.138,50.669174 c -22.3828,0 -40.5276,18.14483 -40.5276,40.52759 0,4.44426 0.7498,8.70855 2.0716,12.709786 0.1344,0.40691 0.2407,0.82388 0.3876,1.22496 1.0323,3.41582 16.1629,53.05901 38.1109,97.57616 0.01,0 0.015,-0.004 0.022,-0.0101 0.01,-0.004 0.017,-0.0135 0.025,-0.0224 0.01,-0.009 0.017,-0.0172 0.025,-0.0231 0.01,-0.006 0.017,-0.0118 0.024,-0.0118 23.4501,-48.62043 38.356,-98.73304 38.356,-98.73304 h -0.012 c 1.3203,-3.999036 2.0449,-8.268886 2.0449,-12.710316 1e-4,-22.382905 -18.1447,-40.527735 -40.5275,-40.527735 z" style="fill:#f22c42"/>
 <circle style="fill:#bc1938" cx="171.828" cy="91.669" r="20"/>
 <path style="opacity:0.4;fill:#ffffff" d="m 172.1384,50.669174 c -22.3828,0 -40.5273,18.144584 -40.5273,40.52734 0,0.37362 0.011,0.74421 0.021,1.11524 0.4722,-21.972822 18.4197,-39.64258 40.5058,-39.64258 22.0861,0 40.0337,17.669619 40.5059,39.64258 0.01,-0.3709 0.022,-0.74185 0.022,-1.11524 1e-4,-22.382901 -18.1446,-40.52734 -40.5274,-40.52734 z"/>
 <path style="opacity:0.3;fill:#ffffff" d="m 54.818174,39.667201 c -35.36853,0 -38.992187,3.623202 -38.992187,38.919923 v 98.158196 c 0,0.0882 0.0019,0.16224 0.002,0.25 V 80.585174 c -4.7e-5,-35.29672 3.625564,-38.921879 38.994094,-38.921879 h 73.005849 73.00586 c 35.28016,0 38.97394,3.621035 38.99219,38.671879 v -1.74805 c 0,-35.296721 -3.62561,-38.919923 -38.99414,-38.919923 h -73.00586 z"/>
 <path style="opacity:0.2" d="m 15.825987,174.74532 v 2 c 0,35.29673 3.624067,39.09487 38.992187,38.92188 h 73.007806 73.00586 c 35.36811,0.17299 38.99414,-3.62515 38.99414,-38.92188 v -2 c 0,35.29673 -3.62603,39.09487 -38.99414,38.92188 H 127.82598 54.818174 c -35.36812,0.17299 -38.992187,-3.62515 -38.992187,-38.92188 z"/>
</svg>
